X:1
T:Taylor (Lowry), 884.884
T:Taylor (Lowry), 884.884
T:Robert Lowry, 1884
T:Public Domain Courtesy of the Cyber Hymnal™
C:Robert Lowry, 1884
Z:Public Domain
Z:Courtesy of the Cyber Hymnal™
%%score ( 1 2 ) ( 3 4 )
L:1/8
Q:1/4=105
M:4/4
K:Ab
V:1 treble 
V:2 treble 
V:3 bass 
V:4 bass 
V:1
 [Ec]2 [Ec]>[Ec] [Fd]2 [Ec]2 | [Ec]2 [DB]2 [CA]4 | [DA]2 [DA]>[DB] [FA]2 [DF]2 | %3
 [CE]2 [EA]2 [EB]4 | [FA]4 [EG]2 [=DF]2 | E8 | [EG]2 [EG]>[EA] [EB]2 [EG]2 | [EA]2 [EB]2 [Ec]4 | %8
 [EB]2 [EB]>[Ec] [Ed]2 [EG]2 | [EA]2 [Ac]2 [GB]4 | A4 [FB]2 [EG]2 | [EA]8 |] %12
V:2
 x8 | x8 | x8 | x8 | x8 | E8 | x8 | x8 | x8 | x8 | A4 x4 | x8 |] %12
V:3
 [A,,A,]2 [A,,A,]>[A,,A,] [A,,A,]2 [A,,A,]2 | [E,G,]2 [E,G,]2 [A,,A,]4 | %2
 [D,F,]2 [D,F,]>[D,F,] [D,A,]2 [D,A,]2 | [A,,A,]2 [C,A,]2 [E,G,]4 | [B,,B,]4 [B,,B,]2 [B,,A,]2 | %5
 [E,G,]8 | [E,B,]2 [E,B,]>[E,C] [E,D]2 [D,B,]2 | [C,A,]2 [B,,G,]2 [A,,A,]4 | %8
 [E,G,]2 [E,G,]>[E,A,] [E,B,]2 [E,D]2 | [A,C]2 [A,,E]2 (E2 D2) | [F,C]4 [D,D]2 [E,D]2 | [A,,C]8 |] %12
V:4
 x8 | x8 | x8 | x8 | x8 | x8 | x8 | x8 | x8 | x4 E,4 | x8 | x8 |] %12

